X:1
T:Just Over in the Glory Land
T:Emmett Sidney Dean
T:Just Over in the Glory Land
T:Public Domain
T:Public Domain
C:Emmett Sidney Dean
Z:Public Domain
%%score ( 1 2 ) ( 3 4 )
L:1/8
M:4/4
K:Ab
V:1 treble 
V:2 treble 
V:3 bass 
V:4 bass 
V:1
 [CE]>[CF] | [CA]2 [DA]2 [CA]2 [CE]>[DF] | [FA]2 [DF]2 [CE]2 [CE]2 | %3
w: 1.~I’ve a|home pre- pared where the|saints a- bide, Just|
w: 2.~I am|on my way to those|man- sions fair, Just|
w: 3.~What a|joy- ful thought that my|Lord I’ll see, Just|
w: 4.~With the|blood washed throng I will|shout and sing, Just|
 [CF][EA][FB][EA] [=Dc]2 [DB]2 | [EB]6 [CE]>[CF] | [CA]2 [DA]2 [CA]2 [CE]>[DF] | %6
w: o- ver in the glo- ry|land; And I|long to be by my|
w: o- ver in the glo- ry|land; There to|sing God’s praise and His|
w: o- ver in the glo- ry|land; And with|kin- dred saved, there for-|
w: o- ver in the glo- ry|land; Glad ho-|san- nas to Christ, the|
 [FA]2 [DF]2 [CE]2 [CE]2 | [DF][EA][FB][FA] [Ec]2 [DB]2 | [CA]6 ||"^Refrain" [CE]2 | %10
w: Sav- ior’s side, Just|o- ver in the glo- ry|land.||
w: glo- ry share; Just|o- ver in the glo- ry|land.|Just|
w: ev- er be, Just|o- ver in the glo- ry|land.||
w: Lord and King, Just|o- ver in the glo- ry|land.||
 [Ec]4- [Ec]>[EB] [EA]>[EB] | [Ec]2 [DB]2 [CA]2 [EA]2 | [FA]4- [FA]>[=EG] [FA]>[FB] | %13
w: |||
w: o- * ver in the|glo- ry land, I’ll|join * the hap- py|
w: |||
w: |||
 [FA]2 [DF]2 [CE]2 [CE]2 | [CF][EA][FB][FA] [=Dc]2 [DB]2 | [EB]6 E2 | [Ec]4- [Ec]>[EB] | %17
w: ||||
w: an- gel band, Just|o- ver in the glo- ry|land; Just|ver * in|
w: ||||
w: ||||
 [EA]>[EB] | [Ec]2 [DB]2 [CA]2 [EA]2 | [FA]4- [FA]>[=EG] [FA]>[FB] | [FA]2 [DF]2 [CE]2 |] %21
w: ||||
w: the glo-|ry land, There with|the * might- y host|I’ll stand, *|
w: ||||
w: ||||
V:2
 x2 | x8 | x8 | x8 | x8 | x8 | x8 | x8 | x6 || x2 | x8 | x8 | x8 | x8 | x8 | x6 E2 | x6 | x2 | x8 | %19
w: |||||||||||||||||||
w: |||||||||||||||o-||||
 x8 | x6 |] %21
w: ||
w: ||
V:3
 [A,,A,]>[A,,A,] | [A,,E,]2 [A,,F,]2 [A,,E,]2 [A,,A,]>[A,,A,] | (D,E,)(F,G,) A,2 A,2 | %3
w: ~ ~|~ ~ ~ ~ ~|~ * ~ * ~ ~|
 [F,A,][C,A,][D,A,][C,A,] (A,G,)(F,A,) | [E,G,]6 [A,,A,]>[A,,A,] | %5
w: ~ ~ ~ ~ ~ * ~ *|~ ~ ~|
 [A,,E,]2 [A,,F,]2 [A,,E,]2 [A,,A,]>[A,,A,] | (D,E,)(F,G,) A,2 A,2 | %7
w: ~ ~ ~ ~ ~|~ * ~ * ~ ~|
 [F,A,][C,A,][D,A,][=D,A,] [E,A,]2 [E,G,]2 | [A,,E,]6 || [A,,A,]2 | %10
w: o- ver ~ ~ ~ ~|~|I’ll|
 [A,,A,]2 [A,,A,]2 [A,,A,]>[B,,G,] [C,A,]>[E,G,] | A,2 [E,G,]2 [F,A,]2 [C,A,]2 | %12
w: join, yes, join ~ ~ ~|~ ~ ~ ~|
 [D,D]2 [D,D]2 [D,D]>[D,D] [D,D]>[D,D] | (D,E,)(F,G,) A,2 A,2 | %14
w: ~ ~ ~ ~ ~ ~|Just * o- * ver, o-|
 [F,A,][C,A,][D,A,][C,A,] (A,G,)(F,A,) | [E,G,]6 [E,G,]2 | [A,,A,]2 [A,,A,]2 [A,,A,]>[B,,G,] | %17
w: ~ ~ There with, yes, * with *|||
 [C,A,]>[E,G,] | A,2 [E,G,]2 [F,A,]2 [C,A,]2 | [D,D]2 [D,D]2 [D,D]>[D,D] [D,D]>[D,D] | %20
w: |||
 (D,E,)(F,G,) A,2 |] %21
w: |
V:4
 x2 | x8 | A,2 A,2 A,2 A,2 | x4 B,,2 B,,2 | x8 | x8 | A,2 A,2 A,2 A,2 | x8 | x6 || x2 | x8 | %11
w: ||~ ~ ~ ~|~ ~|||~ Just o- ver,|||||
 A,2 x6 | x8 | D2 A,2 A,2 A,2 | x4 B,,2 B,,2 | x8 | x6 | x2 | A,2 x6 | x8 | D2 A,2 A,2 |] %21
w: ~||ver ~ ~ ~||||||||

